X: 124
T: Weiceng xiunxige xiaonxu
%%abc-version 2.0
%%abcx-abcm2ps-target-version 5.9.1 (29 Sep 2008)
%%abc-creator hum2abc beta
%%abcx-conversion-date 2013/10/02 07:52:29
%%abc-edited-by Helmut Schaffrath
%%humdrum-veritas 1994374846
%%humdrum-veritas-data 3216900936
%%continueall 1
%%barnumbers 0
L: 1/8
M: 2/4
K: Bb
d'2d' c' [I:setbarnb 1]| 
d'2d' c' | 
d' f' d' c' | 
d'2g2 | 
g3b | 
g2a2 | 
g a g f | 
d'2z2 | 
g df2 | 
f2d2 | 
f2f' c' | 
d' f' d' c' | 
f'2g2 | 
g3b | 
g2g a | 
g a g f | 
d2z2 | 
g b g f | 
d2z2 | 
f' f' c' b | 
g2z2 | 
g3b | 
g2g a | 
g a g f | 
d2z2 |]  



